X:1
T: Christmas in the Trenches
M:4/4
L:1/4
K:C
 G,| E F G F| E3/2 D/2 C C| A,3/2 A,/2 A, G,| F,3 C| B,3/2 B,/2 B, C|\
 D C B, A,| A,3/2 G,/2 G, A,| G,3 G,| E F G F| E D C C| A,3/2 A,/2 A, G,|\
 F,3 C| B,3/2 B,/2 B, C| D C B, C| C3 C| B,/2 B,3/2 B, C| D C B, A,|\
 A, G, G,/2 A,3/2| G,3 E| E D C D| D3/2 D/2 C C| A,3/2 A,/2 B, C| D3 G,|\
 E F G F| E D C2| A,/2 A,3/2 A, G,| F,3 C| B,3/2 B,/2 B, C| D C B,3/2 C/2|\
 C3||

